public/icons/gitpod_icon.svg

<svg width="16" height="16" viewBox="0 0 16 16" fill="none" xmlns="http://www.w3.org/2000/svg">
<path fill-rule="evenodd" clip-rule="evenodd" d="M9.02685 0.796555C9.46809 1.55459 9.19979 2.52026 8.42762 2.95343L3.62634 5.64667C3.49923 5.71797 3.42084 5.85034 3.42084 5.99366V10.2227C3.42084 10.3661 3.49923 10.4984 3.62634 10.5697L7.42521 12.7007C7.5512 12.7714 7.70606 12.7714 7.83205 12.7007L11.6309 10.5697C11.7581 10.4984 11.8364 10.3661 11.8364 10.2227V7.59275L8.41999 9.48505C7.64538 9.91405 6.66314 9.64544 6.22609 8.88505C5.78904 8.12467 6.06268 7.16045 6.83728 6.73142L11.7257 4.02381C13.2148 3.19906 15.0572 4.25521 15.0572 5.93358V10.5433C15.0572 11.623 14.4679 12.6199 13.5129 13.1556L9.14925 15.6034C8.20704 16.1319 7.05026 16.1319 6.108 15.6034L1.74436 13.1556C0.789402 12.6199 0.200058 11.623 0.200058 10.5433V5.67316C0.200058 4.59347 0.789402 3.59656 1.74436 3.06088L6.82965 0.208313C7.60186 -0.224854 8.58554 0.0385099 9.02685 0.796555Z" fill="white"/>
</svg>

<svg width="16" height="16" fill="none" xmlns="http://www.w3.org/2000/svg"><path fill-rule="evenodd" clip-rule="evenodd" d="M9.027.797a1.565 1.565 0 0 1-.6 2.156l-4.8 2.694a.399.399 0 0 0-.206.347v4.229a.4.4 0 0 0 .205.347l3.8 2.13c.125.071.28.071.406 0l3.799-2.13a.398.398 0 0 0 .205-.347v-2.63L8.42 9.485a1.627 1.627 0 0 1-2.194-.6 1.565 1.565 0 0 1 .611-2.154l4.889-2.707c1.489-.825 3.331.231 3.331 1.91v4.61a3 3 0 0 1-1.544 2.612l-4.364 2.447a3.115 3.115 0 0 1-3.041 0l-4.364-2.447A3 3 0 0 1 .2 10.543v-4.87a3 3 0 0 1 1.544-2.612L6.83.208a1.627 1.627 0 0 1 2.197.589Z" fill="#fff"/></svg>
